common/svg/qr-code-icon.svg

<svg fill="none" height="20" viewBox="0 0 20 20" width="20" xmlns="http://www.w3.org/2000/svg" xmlns:xlink="http://www.w3.org/1999/xlink"><clipPath id="a"><path d="m0 0h20v20h-20z"/></clipPath><g clip-path="url(#a)" opacity=".91" stroke="#000"><g stroke-width="2"><path d="m1.01752 14h5v5h-5z"/><path d="m1.01752 1h5v5h-5z"/><path d="m14 1h5v5h-5z"/></g><path d="m.442627 12v-3.5h8.057353v-3.5h1.5"/><path d="m2.5 10v1.5h4v-1.5"/><path d="m7.99481.5h3.50519v2.5h-3.49998m3.49998 4v-2.5"/><path d="m10.5024 20.0202-.0024-5.5202h-2.00964l.00236-2.9973h2.00968v-3.00636h2.9976v2.50366"/><path d="m8.49777 20 .00223-4"/><path d="m12.5 14.05v5.45h7v-5.45"/><path d="m12 12.5h2.5v2h3v-2h2.0001v-4.5"/><path d="m15.5 8v2.5h2.5"/><path d="m17.5 18v-1.5h-3v1.5"/></g></svg>

<svg width="20" height="20" viewBox="0 0 20 20" fill="none" xmlns="http://www.w3.org/2000/svg">
<g opacity="0.91" clip-path="url(#clip0)">
<rect x="1.01752" y="14" width="5" height="5" stroke="black" stroke-width="2"/>
<rect x="1.01752" y="1" width="5" height="5" stroke="black" stroke-width="2"/>
<rect x="14" y="1" width="5" height="5" stroke="black" stroke-width="2"/>
<path d="M0.442627 12V8.5H8.49998V5H9.99998" stroke="black"/>
<path d="M2.5 10V11.5H6.5V10" stroke="black"/>
<path d="M7.99481 0.5H11.5V3H8.00002M11.5 7V4.5" stroke="black"/>
<path d="M10.5024 20.0202L10.5 14.5H8.49036L8.49272 11.5027H10.5024V8.49634H13.5V11" stroke="black"/>
<path d="M8.49777 20L8.5 16" stroke="black"/>
<path d="M12.5 14.05V19.5H19.5V14.05" stroke="black"/>
<path d="M12 12.5H14.5V14.5H17.5V12.5H19.5001V8" stroke="black"/>
<path d="M15.5 8L15.5 10.5L18 10.5" stroke="black"/>
<path d="M17.5 18L17.5 16.5L14.5 16.5L14.5 18" stroke="black"/>
</g>
<defs>
<clipPath id="clip0">
<rect width="20" height="20" fill="white"/>
</clipPath>
</defs>
</svg>
